X:1     %Music
T:Old Woman Tossed Up          %Tune name
C:          %Tune composer
N:Filkins Tradition          %Tune infos
Q:1/4=120     %Tempo
V:1     %
     %!STAVE 0 'Piano 1' @
     %!INSTR '...' 0 0 @
M:6/8     %Meter
L:1/8     %
K:G
GFG ABc |edc BAG |cBA d2 c |BGG G3 |def def |def g3 |cdc cde |=fe=f d3 |GFG ABc |edc BAG |cBA d2 c |BGG G3|]
     %End of file
